X: 10422
T: JACKSON'S MORNING BRUSH
C:
%R: jig
B: Elias Howe "The Musician's Companion" Part 1 1842 p.42 #2
S: http://imslp.org/wiki/The_Musician's_Companion_(Howe,_Elias)
Z: 2015 John Chambers <jc:trillian.mit.edu>
M: 6/8
L: 1/8
K: D
% - - - - - - - - - - - - - - - - - - - - - - - - -
D |\
DFE EFD | DFA AFA | BAB d2f | gee e2D |\
DFE EFD | DFA AFA | BAB d2e | fdd d2 |]\
g |\
fed fag | fda fdB | AFA dfa |
gfg e2g |\
fed faf | gbg faf | fed ege | fdd d2 |]\
g |\
fdf ece | dBd AGF | EFA dfa | gfg e2g |\
fdf edc | dBd AFA | DFA d2e | fdd d2 |]
% - - - - - - - - - - - - - - - - - - - - - - - - -


